icons/clean_hands.svg

<svg width="48" height="48" viewBox="0 0 48 48" fill="none" xmlns="http://www.w3.org/2000/svg">
<path fill-rule="evenodd" clip-rule="evenodd" d="M36.826 13.643L34.5 6.11108L32.174 13.643L27.6741 15.7858L32.1938 17.9381L34.5 24.5272L36.8062 17.9381L41.326 15.7858L36.826 13.643ZM33.826 15.0715L34.5 12.8891L35.174 15.0715L36.6741 15.7858L35.1938 16.4907L34.5 18.473L33.8062 16.4907L32.326 15.7858L33.826 15.0715Z" fill="black"/>
<path d="M19 16L20 12L21 16L24 17L21 18L20 22L19 18L16 17L19 16Z" fill="black"/>
<path fill-rule="evenodd" clip-rule="evenodd" d="M13 39.7493V39.9961C13 41.1006 12.1046 41.9961 11 41.9961H8C6.89543 41.9961 6 41.1006 6 39.9961V29.0007C6 27.8962 6.89543 27.0007 8 27.0007H11C11.946 27.0007 12.7386 27.6575 12.9467 28.54C14.2711 28.0627 15.818 27.4946 16.2913 27.2788C16.6933 27.0957 17.1575 27.0335 17.5432 27.0112C17.9488 26.9878 18.3696 27.004 18.7378 27.0325C19.1092 27.0612 19.4463 27.1041 19.6897 27.1395C19.8119 27.1573 19.9119 27.1734 19.9824 27.1852C20.0177 27.1912 20.0457 27.196 20.0655 27.1996L20.089 27.2038L20.0959 27.2051L20.0995 27.2057L20.1174 27.2091L26.8062 28.7096L26.848 28.723L26.8594 28.7265L26.9055 28.7406C26.9476 28.7533 27.0115 28.772 27.0939 28.7948C27.259 28.8406 27.4964 28.9023 27.7794 28.964C28.3543 29.0894 29.0785 29.2065 29.7538 29.2065C30.3777 29.2065 31.0231 29.439 31.3681 30.0709C31.6644 30.6134 31.5954 31.2091 31.4845 31.6216C31.3464 32.135 31.0604 32.6753 30.6968 33.1343C31.1875 32.9492 31.7239 32.73 32.2997 32.4938L32.4228 32.4432C34.0458 31.7772 35.9703 30.9874 37.6678 30.7067C39.6075 30.3858 41.0193 31.0899 41.6593 32.3391C42.229 33.451 42.0967 34.9104 41.2393 35.7897C41.0241 36.0104 40.6962 36.2419 40.3669 36.4555C40.0153 36.6835 39.5822 36.9412 39.101 37.2141C38.1372 37.7608 36.9441 38.3892 35.7462 38.9967C33.3742 40.1997 30.8878 41.3696 30.0977 41.6589C29.1821 41.9943 28.1986 42.026 27.2528 41.9773C26.7376 41.9508 26.1391 41.8913 25.5442 41.8321C25.1144 41.7894 24.6866 41.7468 24.2935 41.7171C22.3657 41.571 20.8861 41.1005 19.5232 40.6671L19.3575 40.6144C17.9499 40.1676 16.6404 39.7713 14.9054 39.7014C14.5087 39.6854 13.7166 39.7145 13 39.7493ZM17.1208 29.0987C17.1849 29.0695 17.3549 29.0255 17.6585 29.0079C17.9421 28.9915 18.2657 29.0019 18.5835 29.0265C18.8981 29.0509 19.1889 29.0877 19.4018 29.1186C19.5076 29.134 19.5929 29.1478 19.6506 29.1575C19.6795 29.1624 19.7013 29.1662 19.7154 29.1687L19.7176 29.1691L26.2851 30.6424L26.3302 30.6561C26.3848 30.6725 26.4625 30.6952 26.5597 30.7222C26.7538 30.776 27.0277 30.847 27.3531 30.918C27.9383 31.0457 28.7223 31.1804 29.5215 31.2032C29.4645 31.3649 29.368 31.5558 29.2372 31.7459C29.0776 31.9779 28.9023 32.1573 28.7584 32.26C28.3418 32.5576 28.0056 32.6821 27.8015 32.7351C27.6982 32.7619 27.6255 32.7712 27.5896 32.7744L27.5763 32.7755L27.5685 32.7759L22.2065 32.7111L22.0151 34.6948L22.1944 33.711L22.0161 34.695L22.0693 34.7046L22.2218 34.732C22.3538 34.7557 22.5439 34.7895 22.7776 34.8304C23.2446 34.9122 23.8861 35.0224 24.5836 35.136C25.958 35.36 27.6146 35.6082 28.5545 35.6649C29.2036 35.7041 29.9596 35.5049 30.6627 35.2701C31.3964 35.0252 32.2252 34.6861 33.0587 34.3441C34.776 33.6397 36.5246 32.9229 37.9942 32.6799C39.2646 32.4697 39.7168 32.9338 39.8793 33.251C40.1121 33.7055 39.9855 34.2107 39.8074 34.3934C39.7637 34.4382 39.6062 34.565 39.2786 34.7775C38.9733 34.9755 38.578 35.2115 38.1143 35.4745C37.1882 35.9997 36.0255 36.6125 34.8416 37.213C32.4501 38.4259 30.0696 39.5393 29.4099 39.7809C28.8757 39.9766 28.2155 40.0242 27.3557 39.9799C26.8478 39.9538 26.366 39.9048 25.8407 39.8513C25.4161 39.8081 24.963 39.7621 24.4446 39.7228C22.7528 39.5946 21.4666 39.186 20.0883 38.7481L19.9627 38.7082C18.5351 38.255 17.0075 37.7844 14.9859 37.703C14.5308 37.6847 13.7206 37.7128 13 37.7469L13 30.646C14.4055 30.143 16.4871 29.3876 17.1208 29.0987ZM19.9162 28.1888L20.0995 27.2057C20.0997 27.2058 20.0995 27.2057 19.9162 28.1888ZM11 29.0007H8V39.9961H11V29.0007Z" fill="black"/>
</svg>

<svg
  xmlns="http://www.w3.org/2000/svg"
  width="24"
  height="24"
  viewBox="0 0 24 24"
  fill="none"
  stroke="currentColor"
  stroke-width="2"
  stroke-linecap="round"
  stroke-linejoin="round"
>
  <path
    fill-rule="evenodd"
    d="M36.826 13.643 34.5 6.111l-2.326 7.532-4.5 2.143 4.52 2.152 2.306 6.59 2.306-6.59 4.52-2.152zm-3 1.428.674-2.182.674 2.183 1.5.714-1.48.705-.694 1.982-.694-1.982-1.48-.705z"
    clip-rule="evenodd"
  />
  <path d="m19 16 1-4 1 4 3 1-3 1-1 4-1-4-3-1z" />
  <path
    fill-rule="evenodd"
    d="M13 39.75v.246a2 2 0 0 1-2 2H8a2 2 0 0 1-2-2V29.001a2 2 0 0 1 2-2h3a2 2 0 0 1 1.947 1.539c1.324-.477 2.871-1.045 3.344-1.261.402-.183.866-.245 1.252-.268a9 9 0 0 1 1.195.021 15 15 0 0 1 1.328.168l.023.004.007.001h.003l.018.004 6.69 1.5.041.014.011.004.046.014.189.054c.165.046.402.107.685.169.575.125 1.3.242 1.975.242.624 0 1.27.233 1.614.865.296.542.227 1.138.117 1.55-.139.514-.425 1.054-.788 1.513.49-.185 1.027-.404 1.603-.64l.123-.05c1.623-.667 3.547-1.457 5.245-1.737 1.94-.321 3.351.383 3.991 1.632.57 1.112.438 2.571-.42 3.45-.215.221-.543.453-.872.666-.352.229-.785.486-1.266.76a86 86 0 0 1-3.355 1.782c-2.372 1.203-4.858 2.373-5.648 2.662-.916.335-1.9.367-2.845.318a38 38 0 0 1-1.709-.145c-.43-.043-.857-.085-1.25-.115-1.928-.146-3.408-.617-4.77-1.05l-.166-.053c-1.408-.446-2.718-.843-4.453-.913-.396-.016-1.188.014-1.905.048m4.12-10.651c.065-.03.235-.073.538-.091.284-.017.608-.006.925.018a13 13 0 0 1 1.132.143h.003l6.567 1.473.045.014q.083.026.23.066c.194.054.468.125.793.196.585.128 1.37.262 2.168.285a2.4 2.4 0 0 1-.284.543c-.16.232-.335.411-.479.514-.416.298-.752.422-.956.475a1.3 1.3 0 0 1-.212.04h-.022l-5.362-.064-.19 1.984.178-.984-.178.984.053.01.153.027.556.098c.467.082 1.108.192 1.806.306 1.374.224 3.03.472 3.97.529.65.04 1.406-.16 2.109-.395.733-.245 1.562-.584 2.396-.926 1.717-.704 3.466-1.421 4.935-1.664 1.27-.21 1.723.254 1.885.571.233.455.107.96-.072 1.142-.043.045-.2.172-.528.385-.306.197-.701.434-1.165.697a84 84 0 0 1-3.272 1.738c-2.392 1.213-4.772 2.326-5.432 2.568-.534.196-1.195.243-2.054.199-.508-.026-.99-.075-1.515-.129a52 52 0 0 0-1.396-.128c-1.692-.128-2.978-.537-4.357-.975l-.125-.04c-1.428-.453-2.956-.924-4.977-1.005-.455-.018-1.265.01-1.986.044v-7.101c1.406-.503 3.487-1.258 4.12-1.547m2.796-.91.183-.983zM11 29H8v10.995h3z"
    clip-rule="evenodd"
  />
</svg>
